src/img/HomePage/Crystals/Down5.svg

<?xml version="1.0" encoding="UTF-8"?> <svg xmlns="http://www.w3.org/2000/svg" width="205" height="155" viewBox="0 0 205 155" fill="none"> <path fill-rule="evenodd" clip-rule="evenodd" d="M1.58927 1.15855C-1.45894 4.51039 -0.0634695 11.6298 5.8121 22.6809C10.2188 30.9688 15.9627 37.5092 32.6043 53.1852C57.6038 76.7351 66.5914 87.7835 78.7131 109.865C83.6536 118.864 89.0643 128.696 90.735 131.713C93.4731 136.655 94.4946 137.202 101.014 137.229C118.281 137.3 138.215 139.85 159.737 144.741C185.719 150.645 196.345 153.234 199.942 154.532C201.444 155.074 203.142 154.092 204.309 152.01C206.071 148.867 204.394 146.843 182.821 126.065C147.464 92.0103 125.198 67.9143 120.593 58.7173C117.82 53.1816 111.847 47.0671 109.328 47.1864C107.229 47.2857 63.7371 30.9637 44.7614 22.9554C31.3095 17.2769 17.8717 9.85893 8.50885 2.93974C4.57232 0.02959 2.98649 -0.377847 1.58927 1.15855ZM38.8196 56.2609C14.6131 33.9039 5.81767 22.8351 2.57572 10.6475L1.15726 5.31469L6.78209 10.2216C15.1112 17.4873 42.7385 33.4924 58.2084 40.0131C65.6587 43.1542 79.8324 48.2128 89.7065 51.2553C101.022 54.741 108.789 58.0954 110.716 60.327C112.398 62.2726 120.804 72.5815 129.398 83.2336C139.321 95.5327 154.577 111.395 171.203 126.697C185.6 139.95 196.835 150.818 196.168 150.85C195.5 150.882 190.733 149.688 185.572 148.197C157.98 140.228 109.891 132.867 100.295 135.142L95.2976 136.326L84.8648 116.594C71.9167 92.1063 58.2699 74.2264 38.8196 56.2609Z" fill="#FA007A"></path> </svg>

<svg xmlns="http://www.w3.org/2000/svg" width="205" height="155" fill="none"><path fill-rule="evenodd" clip-rule="evenodd" d="M1.59 1.159C-1.46 4.51-.064 11.629 5.811 22.68c4.407 8.288 10.15 14.828 26.792 30.504 25 23.55 33.987 34.599 46.11 56.68a10393.96 10393.96 0 0 0 12.021 21.848c2.738 4.942 3.76 5.489 10.279 5.516 17.267.071 37.201 2.621 58.723 7.512 25.982 5.904 36.608 8.493 40.205 9.791 1.502.542 3.2-.44 4.367-2.522 1.762-3.143.085-5.167-21.488-25.945-35.357-34.055-57.623-58.15-62.228-67.348-2.773-5.535-8.746-11.65-11.265-11.53-2.099.099-45.59-16.223-64.567-24.232C31.31 17.277 17.871 9.86 8.51 2.94 4.572.03 2.986-.378 1.589 1.159ZM38.82 56.26C14.613 33.904 5.818 22.835 2.576 10.647L1.157 5.316l5.625 4.907c8.33 7.265 35.957 23.27 51.426 29.791 7.45 3.141 21.624 8.2 31.499 11.242 11.315 3.486 19.082 6.84 21.009 9.072 1.682 1.946 10.088 12.255 18.682 22.907 9.923 12.299 25.179 28.161 41.805 43.463 14.397 13.253 25.632 24.121 24.965 24.153-.668.032-5.435-1.162-10.596-2.653-27.592-7.969-75.681-15.33-85.277-13.055l-4.997 1.184-10.433-19.732C71.917 92.106 58.27 74.226 38.82 56.261Z" fill="#FA007A"/></svg>
